X:199 
T:Splendid Hornpipe, The  
S:Sheahan MS
F:file ID: cre.4/199splen
B:CRE4.222 (no Gaelic name)
N:Simplied mm 4 & 12: /edcB AGFE/
L:1/8
Q:150
M:C|
R:hornpipe
K:D
AG|F2FD AFdF|E2ED E2AG|FAdf efgf|"4"(3efd (3cdB (3ABG (3FGE|
F2 FD AFdF|E2ED E2 AG|FAdf edce|d2 dc d2:|
ed|cdef gfge|defg a2 fa|gfeg fddf|"12"(3efd (3cdB (3ABG (3FGE|
F2 FD AFdF|E2ED E2 AG|FAdf edce|d2 dc d2:|

%%%

